X:1
T: Angeline the Baker
L: 1/8
C: Traditional
R: Polka
M: 4/4
K: D
|:"D"[A2D2-] B2 d3 [AD-] | B2 d6 | [A2D2-] B2 d2 dA  | "G"[B4D4] [B4D4] |
w: 1.~An-gel-ine the bak-er, lived on a vill-age gre-en,
w: 2.~An-gel-ine the bak-er, age of for--ty th-ree, 
w: 3.~Her father was a bak-er, his name was Un-cle S-am, 
w: 4.~She said she cannot do hard work, be-cause she is not stout,
w: 5.~Brought her out a brand new dress, nei-ther black nor br-own,
w: 6.~Six-teen horses in my team, lea-der he w-as bl-ind,
| "D"[A2D2-] B2 d2 e2 | f2 e2 d2 e2 | "D" f2 e2 "G"d2 B2 | "D"[A8D8] ] :|
w: The way I always lo-ved her beats all you ev-er seen.
w: Fed her su-gar can-dy, and she still won't mar-ry me.
w: I ne-ver can for-get her, no mat-ter where I am.
w: Bakes her bis-cuits ev-ery day, and purs the cof-fee out.
w: It was the color of stor-my skies, before the rain came down.
w: I dreamed that I was dy-ing, I saw my An-gel-ine.
|: "D"af e2de d2 | af e2 d2 B2 | AB de fede | "G"fedBA4  :|
w: An-gel-ine the ba-ker, An-gel-ine I know, Should have mar-ried An-gel-ine, some twen-ty years a-go.


